icons/Color/scalable/gimp-color-picker-black.svg

<svg height="18" viewBox="0 0 18 18" width="18" xmlns="http://www.w3.org/2000/svg" xmlns:xlink="http://www.w3.org/1999/xlink"><linearGradient id="a" gradientTransform="matrix(.45949087 .45589994 -.45949087 .45589994 121.58064 -71.627848)" gradientUnits="userSpaceOnUse" x1="-37.5" x2="-37.5" y1="199.3438" y2="204.34621"><stop offset="0" stop-color="#fff"/><stop offset="1" stop-color="#fff" stop-opacity="0"/></linearGradient><g transform="translate(0 2)"><path d="m0-1.999996h18v18h-18z" fill="none" opacity=".242678"/><g transform="matrix(1.0587177 0 0 1.0694926 -.010021 -2.290759)"><path d="m9.8343554 4.1370085-5.7138711 5.6977598v1.3240377h1.32997l5.7138647-5.7022084z" fill="#d3d7cf" fill-rule="evenodd" stroke="#888a85" stroke-width=".666669"/><path d="m9.9011892 4.516309.4607148.4765917-5.2437213 5.1942183-.0229581-.9293285z" fill="#fff"/><path d="m13.353849 2.0284512c-.656193-.653186-1.721297-.6532504-2.37749-.0000645-.300755.2994172-.465289.6878085-.490359 1.0798104l-1.1887323.5620197 2.3923513 2.3814757.579501-1.1685265c.393823-.024952.783987-.1887799 1.084735-.4881326.656187-.653186.65618-1.7133962-.000006-2.3665822z" fill="#183968" stroke="#2e3436" stroke-linecap="round" stroke-linejoin="round" stroke-width=".666669"/><path d="m12.910907 2.4559782c-.45293-.4493837-1.034368-.4025111-1.457094.016892-.19375.1922614-.237119.7317153-.24478.9918678l-.624261.330365.962049.9545373.347341-.6050883c.262195-.00761.777196-.022179.970939-.214376.422726-.4194678.498729-1.0248141.04581-1.4741978z" fill="none" opacity=".589958" stroke="url(#a)" stroke-linecap="round" stroke-width=".666669"/><path d="m7.615798 6.769288-3.1703916 3.1319529v.9409331h.8863521l4.0819436-4.072886z" fill-rule="evenodd"/></g><g transform="translate(2)"><path d="m10 10v6h6v-6zm1 1h4v4h-4z" fill="#204a87"/><path d="m11 11h4v4h-4z"/></g></g></svg>

<?xml version="1.0" encoding="UTF-8" standalone="no"?>
<!-- Created with Inkscape (http://www.inkscape.org/) -->

<svg
   xmlns:dc="http://purl.org/dc/elements/1.1/"
   xmlns:cc="http://creativecommons.org/ns#"
   xmlns:rdf="http://www.w3.org/1999/02/22-rdf-syntax-ns#"
   xmlns:svg="http://www.w3.org/2000/svg"
   xmlns="http://www.w3.org/2000/svg"
   xmlns:xlink="http://www.w3.org/1999/xlink"
   xmlns:sodipodi="http://sodipodi.sourceforge.net/DTD/sodipodi-0.dtd"
   xmlns:inkscape="http://www.inkscape.org/namespaces/inkscape"
   inkscape:export-ydpi="90.000000"
   inkscape:export-xdpi="90.000000"
   inkscape:export-filename="/home/jimmac/src/cvs/gnome/gimp/themes/Default/images/stock-layers-16.png"
   width="18"
   height="18"
   id="svg11300"
   sodipodi:version="0.32"
   inkscape:version="0.91+devel r"
   sodipodi:docname="gimp-color-picker-black.svg"
   version="1.0"
   viewBox="0 0 18 18">
  <sodipodi:namedview
     inkscape:cy="8.6335628"
     inkscape:cx="6.7824767"
     inkscape:zoom="38.973447"
     inkscape:window-height="1016"
     inkscape:window-width="1920"
     inkscape:pageshadow="2"
     inkscape:pageopacity="0.0"
     borderopacity="0.17254902"
     bordercolor="#666"
     pagecolor="#ffffff"
     id="base"
     inkscape:showpageshadow="false"
     showborder="true"
     inkscape:window-x="0"
     inkscape:window-y="27"
     inkscape:current-layer="layer1"
     width="16px"
     height="16px"
     showgrid="true"
     inkscape:window-maximized="1"
     inkscape:document-units="px"
     inkscape:snap-global="false">
    <inkscape:grid
       type="xygrid"
       id="grid4297" />
  </sodipodi:namedview>
  <defs
     id="defs3">
    <linearGradient
       id="linearGradient4176"
       inkscape:collect="always">
      <stop
         id="stop4178"
         offset="0"
         style="stop-color:#ffffff;stop-opacity:1;" />
      <stop
         id="stop4180"
         offset="1"
         style="stop-color:#ffffff;stop-opacity:0;" />
    </linearGradient>
    <linearGradient
       inkscape:collect="always"
       xlink:href="#linearGradient4176"
       id="linearGradient7319"
       gradientUnits="userSpaceOnUse"
       gradientTransform="matrix(0.45949087,0.45589994,-0.45949087,0.45589994,121.58064,-71.627848)"
       x1="-37.5"
       y1="199.3438"
       x2="-37.5"
       y2="204.34621" />
  </defs>
  <sodipodi:namedview
     stroke="#ef2929"
     fill="#eeeeec"
     pagecolor="#ffffff"
     bordercolor="#666666"
     borderopacity="0.25490196"
     inkscape:pageopacity="0.0"
     inkscape:pageshadow="2"
     inkscape:zoom="1"
     inkscape:cx="-14.198652"
     inkscape:cy="-5.1663457"
     inkscape:current-layer="layer1"
     showgrid="false"
     inkscape:grid-bbox="true"
     inkscape:document-units="px"
     inkscape:showpageshadow="false"
     inkscape:window-width="872"
     inkscape:window-height="659"
     inkscape:window-x="403"
     inkscape:window-y="296"
     width="32px"
     height="32px"
     id="namedview73" />
  <metadata
     id="metadata4">
    <rdf:RDF>
      <cc:Work
         rdf:about="">
        <dc:format>image/svg+xml</dc:format>
        <dc:type
           rdf:resource="http://purl.org/dc/dcmitype/StillImage" />
        <dc:creator>
          <cc:Agent>
            <dc:title>Jakub Steiner</dc:title>
          </cc:Agent>
        </dc:creator>
        <dc:source>http://jimmac.musichall.cz</dc:source>
        <cc:license
           rdf:resource="http://creativecommons.org/licenses/by-sa/2.0/" />
        <dc:title />
      </cc:Work>
      <cc:License
         rdf:about="http://creativecommons.org/licenses/by-sa/2.0/">
        <cc:permits
           rdf:resource="http://web.resource.org/cc/Reproduction" />
        <cc:permits
           rdf:resource="http://web.resource.org/cc/Distribution" />
        <cc:requires
           rdf:resource="http://web.resource.org/cc/Notice" />
        <cc:requires
           rdf:resource="http://web.resource.org/cc/Attribution" />
        <cc:permits
           rdf:resource="http://web.resource.org/cc/DerivativeWorks" />
        <cc:requires
           rdf:resource="http://web.resource.org/cc/ShareAlike" />
      </cc:License>
    </rdf:RDF>
  </metadata>
  <g
     id="layer1"
     inkscape:label="Layer 1"
     inkscape:groupmode="layer"
     transform="translate(0,2)">
    <g
       id="g4368">
      <rect
         style="opacity:0.24267782;fill:#000000;fill-opacity:0;stroke:none;stroke-width:0.7281841;stroke-linecap:round;stroke-linejoin:round;stroke-miterlimit:4;stroke-dasharray:none;stroke-dashoffset:0;stroke-opacity:1"
         id="rect6196"
         width="18"
         height="18"
         x="2.3478142e-07"
         y="-1.9999961" />
      <g
         transform="matrix(1.0587177,0,0,1.0694926,-0.01002066,-2.2907592)"
         id="g4346">
        <path
           inkscape:connector-curvature="0"
           style="fill:#d3d7cf;fill-opacity:1;fill-rule:evenodd;stroke:#888a85;stroke-width:0.66666895px;stroke-linecap:butt;stroke-linejoin:miter;stroke-opacity:1"
           d="M 9.8343554,4.1370085 4.1204843,9.8347683 v 1.3240377 h 1.32997 L 11.164319,5.4565976 Z"
           id="path7235"
           sodipodi:nodetypes="cccccc" />
        <path
           inkscape:connector-curvature="0"
           style="fill:#ffffff;fill-opacity:1;stroke:none;stroke-width:0.64727408;stroke-linecap:round;stroke-linejoin:round;stroke-miterlimit:4;stroke-dashoffset:0;stroke-opacity:1"
           d="M 9.9011892,4.516309 10.361904,4.9929007 5.1181827,10.187119 5.0952246,9.2577905 Z"
           id="path17734"
           sodipodi:nodetypes="ccccc" />
        <path
           inkscape:connector-curvature="0"
           style="opacity:1;fill:#183968;fill-opacity:1;stroke:#2e3436;stroke-width:0.66666859;stroke-linecap:round;stroke-linejoin:round;stroke-miterlimit:4;stroke-dasharray:none;stroke-dashoffset:0;stroke-opacity:1"
           d="M 13.353849,2.0284512 C 12.697656,1.3752652 11.632552,1.3752008 10.976359,2.0283867 10.675604,2.3278039 10.51107,2.7161952 10.486,3.1081971 L 9.2972677,3.6702168 11.689619,6.0516925 12.26912,4.883166 c 0.393823,-0.024952 0.783987,-0.1887799 1.084735,-0.4881326 0.656187,-0.653186 0.65618,-1.7133962 -6e-6,-2.3665822 z"
           id="path7237"
           sodipodi:nodetypes="csccccsc" />
        <path
           inkscape:connector-curvature="0"
           style="opacity:0.58995816;fill:none;fill-opacity:1;stroke:url(#linearGradient7319);stroke-width:0.66666883;stroke-linecap:round;stroke-linejoin:miter;stroke-miterlimit:4;stroke-dasharray:none;stroke-dashoffset:0;stroke-opacity:1"
           d="m 12.910907,2.4559782 c -0.45293,-0.4493837 -1.034368,-0.4025111 -1.457094,0.016892 -0.19375,0.1922614 -0.237119,0.7317153 -0.24478,0.9918678 l -0.624261,0.330365 0.962049,0.9545373 0.347341,-0.6050883 c 0.262195,-0.00761 0.777196,-0.022179 0.970939,-0.214376 0.422726,-0.4194678 0.498729,-1.0248141 0.04581,-1.4741978 z"
           id="path7247"
           sodipodi:nodetypes="csccccsc" />
        <path
           inkscape:connector-curvature="0"
           style="fill:#000000;fill-opacity:1;fill-rule:evenodd;stroke:none;stroke-width:0.6472742px;stroke-linecap:butt;stroke-linejoin:miter;stroke-opacity:1"
           d="M 7.615798,6.769288 4.4454064,9.9012409 V 10.842174 H 5.3317585 L 9.4137021,6.769288 Z"
           id="path7284"
           sodipodi:nodetypes="cccccc" />
      </g>
      <g
         transform="translate(2)"
         id="g4350">
        <path
           id="path13012-0"
           d="m 10,10 v 6 h 6 v -6 z m 1,1 h 4 v 4 h -4 z"
           style="display:inline;fill:#204a87;fill-opacity:1;stroke:none"
           inkscape:connector-curvature="0" />
        <rect
           style="color:#000000;clip-rule:nonzero;display:inline;overflow:visible;visibility:visible;opacity:1;isolation:auto;mix-blend-mode:normal;color-interpolation:sRGB;color-interpolation-filters:linearRGB;solid-color:#000000;solid-opacity:1;fill:#000000;fill-opacity:1;fill-rule:nonzero;stroke:none;stroke-width:0.48570934;stroke-linecap:round;stroke-linejoin:round;stroke-miterlimit:4;stroke-dasharray:none;stroke-dashoffset:0;stroke-opacity:1;color-rendering:auto;image-rendering:auto;shape-rendering:auto;text-rendering:auto;enable-background:accumulate"
           id="rect4080"
           width="4"
           height="4"
           x="11"
           y="11" />
      </g>
    </g>
  </g>
</svg>
